packages/bpk-svgs/src/icons/sm/baggage.svg

<svg xmlns="http://www.w3.org/2000/svg" viewBox="0 0 18 18" enable-background="new 0 0 18 18"><path d="M12 5c0-1.1-.9-2-2-2h-2c-1.1 0-2 .9-2 2v1h-1v9h8v-9h-1v-1zm-4 0h2v1h-2v-1zm-7 2.5v6c0 .825.675 1.5 1.5 1.5h1.5v-9h-1.5c-.825 0-1.5.675-1.5 1.5zm14.5-1.5h-1.5v9h1.5c.825 0 1.5-.675 1.5-1.5v-6c0-.825-.675-1.5-1.5-1.5z"/></svg>

<svg xmlns="http://www.w3.org/2000/svg" viewBox="0 0 18 18"><path d="M12 5c0-1.1-.9-2-2-2H8c-1.1 0-2 .9-2 2v1H5v9h8V6h-1V5zM8 5h2v1H8V5zM1 7.5v6c0 .825.675 1.5 1.5 1.5H4V6H2.5C1.675 6 1 6.675 1 7.5zM15.5 6H14v9h1.5c.825 0 1.5-.675 1.5-1.5v-6c0-.825-.675-1.5-1.5-1.5z"/></svg>
